X: 27524
T: Mon Papa
R: polka
M: 2/4
K: Gmajor
|:D2 G2 G4|B2 G2 D4|B3 c B2 A2|A3 B A2 G2|
D2 G2 G4|B2 G2 D4|B3 c B2 A2|E2 F2 G4:|

